X:1
T:Title
%%score { ( 1 4 ) | ( 2 3 ) }
L:1/8
M:6/8
K:Ab
V:1 treble nm="Grand Piano"
V:4 treble 
V:2 bass 
V:3 bass 
V:1
 z3 z2[Q:1/4=87] [CE] | [CE]>[CF][CG] [CA][DB][CA] | [Ec]3 [Ec]2 [Ec] | %3
 [Fd][Fc][Fd] [FA][FA][=EB] | [Ec]3- [Ec]2 [Ec] | B>=AB dcB | [CA]3 [Ec]2 [_Ge] | %7
 [Ge]>[B=d][Ac] [GB][FA][=DF] |[M:5/8] [G,E]-[G,E]- [G,E]3 |[M:1/8] [DE] |[M:3/4] [CE]2 F [CF]2 A | %11
 [DA]2 G [DG]2 E | [DE]2 F [DF]2 G | [CF]2 E [CE]2 E | [Ec]2 c [Fd]2 c | [Fc]2 B [DF]2 F | %16
 [=DB]2 B[FA] [EG]F | [B,EG]3 [B,F]2 [B,D] | [Ec]2 c [Gc]2 c | [Fd]2 d [Gd]2 d | [Bd]2 z .[Gd]3 | %21
 [Fd]2 d [Ec]2 [Ec] | [Ee]2 [Ec] [EB]2 [_GA] | [FB]2 [DF] [FA]2 [FA] | c2 e [EAc]2 [DGB] | %25
[M:5/8] [CA]-[CA]- [CA]3 |] %26
V:2
 z3 z2 [A,,A,] | [A,,A,]>[A,,A,][A,,A,] [A,,A,][A,,A,][A,,A,] | [A,,A,]3 [A,,A,]2 [A,,A,] | %3
 [D,A,][D,A,][D,A,] [D,D][D,D][D,A,] | [A,,A,]3- [A,,A,]2 [A,,A,] | %5
 [E,G,D]>[E,_G,C][E,=G,D] [E,G,F][E,G,E][E,G,D] | [A,,A,]3 [A,,A,]2 [=A,,C] | %7
 [B,,B,]>[B,,B,][B,,B,] [B,,B,][B,,B,][B,,B,] |[M:5/8] E,-E,- E,3 |[M:1/8] E, | %10
[M:3/4] A,,A, CA,, A,C | B,,B, DE,, E,D | B,,B, DE,, E,D | A,,A, CA,, A,C | A,,A, EA,, A,E | %15
 D,D EB,, B,D | .B,,>[K:treble]c =D[K:bass]B,, B,D | E,3 F,2 G, | A,,A, AA,, A,F | B,,B, AE,, E,G | %20
 [E,,E,][E,G,] A[E,,E,] [E,G,]F | A,,A, =EA,, A,[A,,A,] | [A,,C]2 [A,,A,] [B,,G,]2 [C,A,] | %23
 [D,A,]2 [D,B,] [=D,_C]2 [D,C] | [E,CE]2 [E,C] E,2 E, |[M:5/8] A,,-A,,- A,,3 |] %26
V:3
 x6 | x6 | x6 | x6 | x6 | x6 | x6 | x6 |[M:5/8] x5 |[M:1/8] x |[M:3/4] x6 | x6 | x6 | x6 | x6 | %15
 x6 | z B,[K:treble] z2[K:bass] z2 | x6 | x6 | x6 | x6 | x6 | x6 | x6 | x6 |[M:5/8] x5 |] %26
V:4
 x6 | x6 | x6 | x6 | x6 | x6 | x6 | x6 |[M:5/8] x5 |[M:1/8] x |[M:3/4] x6 | x6 | x6 | x6 | x6 | %15
 x6 | x6 | x6 | x6 | x6 | z D .d2 Dd | x6 | x6 | x6 | x6 |[M:5/8] x5 |] %26

